!!!COM:	Pipelare, Matthaeus
!!!CDT:	~1450///-~1550//
!!!OPR:	Missa Fors seulement
!!!ONM:	4
!!!OTL:	Sanctus
!!!AGN:	Mass; Sanctus
!!!SCT:	Pip1004d
!!!SCA:	Pip1004d
!!!voices-OPR:	5
!!!voices:	5
**kern	**text	**kern	**text	**kern	**text	**kern	**text	**kern	**text
*staff5	*staff5	*staff4	*staff4	*staff3	*staff3	*staff2	*staff2	*staff1	*staff1
*Ivox	*	*Ivox	*	*Ivox	*	*Ivox	*	*Ivoxa	*
*I"Bassus	*	*I"Tenor2	*	*I"Contra	*	*I"Tenor1	*	*I"Superius	*
*I'B	*	*I'T2	*	*I'C	*	*I'T1	*	*I'S	*
*>[A,B,C,D,C]	*>[A,B,C,D,C]	*>[A,B,C,D,C]	*>[A,B,C,D,C]	*>[A,B,C,D,C]	*>[A,B,C,D,C]	*>[A,B,C,D,C]	*>[A,B,C,D,C]	*>[A,B,C,D,C]	*>[A,B,C,D,C]
*>A	*>A	*>A	*>A	*>A	*>A	*>A	*>A	*>A	*>A
*clefF4	*	*clefF4	*	*clefF4	*	*clefGv2	*	*clefGv2	*
*k[]	*	*k[]	*	*k[]	*	*k[]	*	*k[]	*
*M2/1	*	*M2/1	*	*M2/1	*	*M2/1	*	*M2/1	*
*met(C|)	*	*met(C|)	*	*met(C|)	*	*met(C|)	*	*met(C|)	*
!!section: Sanctus
!!!OMD: Sanctus
=1-	=1-	=1-	=1-	=1-	=1-	=1-	=1-	=1-	=1-
0r	.	0r	.	0D	Sanc-	0r	.	0r	.
=2	=2	=2	=2	=2	=2	=2	=2	=2	=2
0r	.	0r	.	1F	.	0r	.	0r	.
.	.	.	.	1E	.	.	.	.	.
=3	=3	=3	=3	=3	=3	=3	=3	=3	=3
0r	.	0r	.	1F	.	0r	.	0d	San-
.	.	.	.	1G	.	.	.	.	.
=4	=4	=4	=4	=4	=4	=4	=4	=4	=4
0r	.	0r	.	1.A	.	0r	.	1f	.
.	.	.	.	.	.	.	.	1e	.
.	.	.	.	2G\	.	.	.	.	.
=5	=5	=5	=5	=5	=5	=5	=5	=5	=5
0r	.	0r	.	2F\	.	0r	.	1f	.
.	.	.	.	4E\	.	.	.	.	.
.	.	.	.	4D\	.	.	.	.	.
.	.	.	.	1E	.	.	.	1g	.
=6	=6	=6	=6	=6	=6	=6	=6	=6	=6
0r	.	0r	.	2D\	.	0r	.	1.a	.
.	.	.	.	1F	.	.	.	.	.
.	.	.	.	2E\	.	.	.	2g\	.
=7	=7	=7	=7	=7	=7	=7	=7	=7	=7
0r	.	0r	.	2D\	.	0r	.	2f\	.
.	.	.	.	4C/	.	.	.	4e\	.
.	.	.	.	4BB/	.	.	.	4d\	.
.	.	.	.	1AA	-tus	.	.	2f\	.
.	.	.	.	.	.	.	.	[2e\	.
=8	=8	=8	=8	=8	=8	=8	=8	=8	=8
0r	.	0r	.	2r	.	0r	.	2e\]	.
.	.	.	.	1A	[Sanc-	.	.	4d\	.
.	.	.	.	.	.	.	.	4c\	.
.	.	.	.	.	.	.	.	1B	.
.	.	.	.	2G\	.	.	.	.	.
=9	=9	=9	=9	=9	=9	=9	=9	=9	=9
0r	.	0r	.	2F\	.	0r	.	1A	-tus
.	.	.	.	4E\	.	.	.	.	.
.	.	.	.	4D\	.	.	.	.	.
.	.	.	.	2C/	.	.	.	2r	.
.	.	.	.	[2D\	.	.	.	[2a\	[sanc-
=10	=10	=10	=10	=10	=10	=10	=10	=10	=10
0r	.	0r	.	2D\]	.	0r	.	2a\]	.
.	.	.	.	2E\	.	.	.	2g\	.
.	.	.	.	2F\	.	.	.	2f\	.
.	.	.	.	2G\	.	.	.	4e\	.
.	.	.	.	.	.	.	.	4d\	.
=11	=11	=11	=11	=11	=11	=11	=11	=11	=11
0r	.	0r	.	2E\	.	0r	.	2c\	.
.	.	.	.	2F\	.	.	.	2d\	.
.	.	.	.	2G\	.	.	.	2e\	.
.	.	.	.	2A\	.	.	.	[2f\	.
=12	=12	=12	=12	=12	=12	=12	=12	=12	=12
0r	.	0r	.	1D	.	0r	.	4f\]	.
.	.	.	.	.	.	.	.	4e\	.
.	.	.	.	.	.	.	.	1d	.
.	.	.	.	1E	.	.	.	.	.
.	.	.	.	.	.	.	.	2c#i\	.
=13	=13	=13	=13	=13	=13	=13	=13	=13	=13
0r	.	1r	.	[0D	-tus]	[0A	Sanc-	[0d	-tus]
.	.	2r	.	.	.	.	.	.	.
.	.	[2D\	Sanc-	.	.	.	.	.	.
=14	=14	=14	=14	=14	=14	=14	=14	=14	=14
0r	.	2D\]	.	0D_	.	0A]	.	0d]	.
.	.	2E\	.	.	.	.	.	.	.
.	.	2F\	.	.	.	.	.	.	.
.	.	2G\	.	.	.	.	.	.	.
=15	=15	=15	=15	=15	=15	=15	=15	=15	=15
1r	.	1A	.	0D]	.	0A	-tus	0r	.
2r	.	2D\	.	.	.	.	.	.	.
[2DD/	Sanc-	[2A\	.	.	.	.	.	.	.
=16	=16	=16	=16	=16	=16	=16	=16	=16	=16
2DD/]	.	2A\]	.	0r	.	0A	[sanc-	0r	.
2EE/	.	2G\	.	.	.	.	.	.	.
2FF/	.	2F\	-tus	.	.	.	.	.	.
2GG/	.	4E\	.	.	.	.	.	.	.
.	.	4D\	.	.	.	.	.	.	.
=17	=17	=17	=17	=17	=17	=17	=17	=17	=17
1AA	.	1C	.	0r	.	0A	-tus	0r	.
2DD/	.	2r	.	.	.	.	.	.	.
[2AA/	.	[2C/	[sanc-	.	.	.	.	.	.
=18	=18	=18	=18	=18	=18	=18	=18	=18	=18
2AA/]	.	2C/]	.	0r	.	0A	sanc	0r	.
2BB/	.	2D\	.	.	.	.	.	.	.
2C/	.	2E\	.	.	.	.	.	.	.
2D\	.	2F\	.	.	.	.	.	.	.
=19	=19	=19	=19	=19	=19	=19	=19	=19	=19
1E	-tus	1G	.	0r	.	0G	tus	0r	.
2r	.	2C/	.	.	.	.	.	.	.
[2E\	[sanc-	[2G\	.	.	.	.	.	.	.
=20	=20	=20	=20	=20	=20	=20	=20	=20	=20
2E\]	.	2G\]	.	0r	.	0G	sanc-	0r	.
2D\	.	2F\	.	.	.	.	.	.	.
2C/	.	2E\	.	.	.	.	.	.	.
2BB/	.	2D\	.	.	.	.	.	.	.
=21	=21	=21	=21	=21	=21	=21	=21	=21	=21
2.AA/	.	2F\	.	0r	.	[0A	-tus]	0r	.
.	.	2E\	.	.	.	.	.	.	.
4GG/	.	.	.	.	.	.	.	.	.
4FF/	.	2D\	.	.	.	.	.	.	.
4EE/	.	.	.	.	.	.	.	.	.
[2DD/	.	[2F\	.	.	.	.	.	.	.
=22	=22	=22	=22	=22	=22	=22	=22	=22	=22
2DD/]	.	2F\]	.	0r	.	0A]	.	0r	.
1D	.	4E\	.	.	.	.	.	.	.
.	.	4D\	.	.	.	.	.	.	.
.	.	1E	.	.	.	.	.	.	.
2C#i/	.	.	.	.	.	.	.	.	.
=23	=23	=23	=23	=23	=23	=23	=23	=23	=23
[0D	-tus]	0D	-tus]	1r	.	0r	.	1r	.
.	.	.	.	[1A	Sanc-	.	.	[1f	sanc-
=24	=24	=24	=24	=24	=24	=24	=24	=24	=24
0D]	.	0r	.	1A]	.	0r	.	1f]	.
.	.	.	.	1F	.	.	.	1f	-tus
=25	=25	=25	=25	=25	=25	=25	=25	=25	=25
0r	.	0r	.	1G	.	0r	.	1e	[sanc-
.	.	.	.	1A	.	.	.	1c	.
=26	=26	=26	=26	=26	=26	=26	=26	=26	=26
0r	.	0r	.	2F\	.	0r	.	1d	.
.	.	.	.	2G\	.	.	.	.	.
.	.	.	.	4G\	.	.	.	1e	.
.	.	.	.	4F\	.	.	.	.	.
.	.	.	.	4E\	.	.	.	.	.
.	.	.	.	4D\	.	.	.	.	.
=27	=27	=27	=27	=27	=27	=27	=27	=27	=27
0r	.	0r	.	2C/	.	0r	.	1A	.
.	.	.	.	1D	.	.	.	.	.
.	.	.	.	.	.	.	.	2B\	.
.	.	.	.	2C/	.	.	.	[2c\	.
=28	=28	=28	=28	=28	=28	=28	=28	=28	=28
0r	.	0r	.	1AA	.	0r	.	4c\]	.
.	.	.	.	.	.	.	.	4B\	.
.	.	.	.	.	.	.	.	1A	.
.	.	.	.	1BB	.	.	.	.	.
.	.	.	.	.	.	.	.	2G#i/	.
=29	=29	=29	=29	=29	=29	=29	=29	=29	=29
1r	.	1r	.	0AA	-tus	[0c	Do-	[0A	-tus
[1AA	sanc-	[1E	sanc-	.	.	.	.	.	.
=30	=30	=30	=30	=30	=30	=30	=30	=30	=30
1AA]	.	1E]	.	1r	.	1c]	.	0A]	.
1AA	-tus	1E	-tus	[1A	[Sanc-	1c	-mi-	.	.
=31	=31	=31	=31	=31	=31	=31	=31	=31	=31
0FF	sanc-	0F	[sanc-	1A]	.	0c	-nus	0r	.
.	.	.	.	1A	-tus]	.	.	.	.
=32	=32	=32	=32	=32	=32	=32	=32	=32	=32
0AA	.	0E	.	1r	.	0c	[Do-	1r	.
.	.	.	.	[1A	Sanc-	.	.	1e	sanc-
=33	=33	=33	=33	=33	=33	=33	=33	=33	=33
0DD	-tus	1.D	.	0A_	.	0d	.	1.f	.
.	.	4C/	.	.	.	.	.	4e\	.
.	.	4BB/	.	.	.	.	.	4d\	.
=34	=34	=34	=34	=34	=34	=34	=34	=34	=34
0r	.	1AA	.	1A]	.	1c	.	1e	.
.	.	1D	.	1F	.	[1B	.	1d	.
=35	=35	=35	=35	=35	=35	=35	=35	=35	=35
0r	.	1E	.	2G\	.	1B]	.	1g	.
.	.	.	.	1E	.	.	.	.	.
.	.	1C	.	.	.	[1A	.	1e	.
.	.	.	.	[2A\	.	.	.	.	.
=36	=36	=36	=36	=36	=36	=36	=36	=36	=36
0r	.	1D	.	4A\]	.	1A]	.	2f\	.
.	.	.	.	4G\	.	.	.	.	.
.	.	.	.	4F\	.	.	.	1d	.
.	.	.	.	4E\	.	.	.	.	.
.	.	1BB	.	1D	.	1G#i	-mi-	.	.
.	.	.	.	.	.	.	.	4c\	.
.	.	.	.	.	.	.	.	4B\	.
=37	=37	=37	=37	=37	=37	=37	=37	=37	=37
1r	.	0AA	-tus]	[0E	.	[0A	-nus]	[0c	-tus]
[1AA	sanc-	.	.	.	.	.	.	.	.
=38	=38	=38	=38	=38	=38	=38	=38	=38	=38
1AA]	.	0r	.	1E]	.	0A]	.	0c]	.
1FF	.	.	.	1F	.	.	.	.	.
=39	=39	=39	=39	=39	=39	=39	=39	=39	=39
1GG	.	0r	.	2D\	.	0r	.	0r	.
.	.	.	.	2.E\	.	.	.	.	.
2EE/	.	.	.	.	.	.	.	.	.
.	.	.	.	4D\	.	.	.	.	.
[2FF/	.	.	.	4C/	.	.	.	.	.
.	.	.	.	4BB/	.	.	.	.	.
=40	=40	=40	=40	=40	=40	=40	=40	=40	=40
2FF/]	.	0r	.	2AA/	.	0r	.	0r	.
4EE/	.	.	.	1D	.	.	.	.	.
4DD/	.	.	.	.	.	.	.	.	.
1EE	.	.	.	.	.	.	.	.	.
.	.	.	.	2C#i/	.	.	.	.	.
=41	=41	=41	=41	=41	=41	=41	=41	=41	=41
0DD	-tus	1r	.	0D	-tus	0r	.	2r	.
.	.	.	.	.	.	.	.	2.A/	Sanc
.	.	[1A	Sanc-	.	.	.	.	.	.
.	.	.	.	.	.	.	.	4B\	.
.	.	.	.	.	.	.	.	4c\	.
.	.	.	.	.	.	.	.	4d\	.
=42	=42	=42	=42	=42	=42	=42	=42	=42	=42
0r	.	1A]	.	0r	.	0r	.	1e	.
.	.	1F	.	.	.	.	.	1f	.
=43	=43	=43	=43	=43	=43	=43	=43	=43	=43
0r	.	1G	.	0r	.	0r	.	2d\	.
.	.	.	.	.	.	.	.	2.e\	.
.	.	2E\	.	.	.	.	.	.	.
.	.	.	.	.	.	.	.	4d\	.
.	.	[2F\	.	.	.	.	.	4c\	.
.	.	.	.	.	.	.	.	4B\	.
=44	=44	=44	=44	=44	=44	=44	=44	=44	=44
0r	.	2F\]	.	0r	.	0r	.	2A/	.
.	.	4E\	.	.	.	.	.	1d	.
.	.	4D\	.	.	.	.	.	.	.
.	.	1E	.	.	.	.	.	.	.
.	.	.	.	.	.	.	.	2c#i\	.
=45	=45	=45	=45	=45	=45	=45	=45	=45	=45
1r	.	0D	-tus	1r	.	[0A	[De-	0d	tus]
[1DD	[sanc-	.	.	[1F	Do-	.	.	.	.
=46	=46	=46	=46	=46	=46	=46	=46	=46	=46
1DD]	.	1r	.	1F]	.	0A]	.	1r	.
1DD	-tus]	[1D	[sanc-	1F	-mi-	.	.	[1d	[Sanc-
=47	=47	=47	=47	=47	=47	=47	=47	=47	=47
0DD	Do-	1D]	.	0F	-nus	[0A	-us	1d]	.
.	.	1D	-tus]	.	.	.	.	1d	-tus]
=48	=48	=48	=48	=48	=48	=48	=48	=48	=48
0AA	.	0C	Do-	0E	.	0A]	.	1e	Do-
.	.	.	.	.	.	.	.	2e\	-mi-
.	.	.	.	.	.	.	.	[2c\	.
=49	=49	=49	=49	=49	=49	=49	=49	=49	=49
0FF	-mi-	[0C	-mi-	[0F	.	0A	Do-	2c\]	.
.	.	.	.	.	.	.	.	2A/	.
.	.	.	.	.	.	.	.	1A	-nus
=50	=50	=50	=50	=50	=50	=50	=50	=50	=50
0AA	.	0C]	.	0F]	.	0A	-mi-	1r	.
.	.	.	.	.	.	.	.	1a	[Do-
=51	=51	=51	=51	=51	=51	=51	=51	=51	=51
[0GG	.	[0BB	.	1.G	.	0B	-nus]	1d	.
.	.	.	.	.	.	.	.	2d\	-mi-
.	.	.	.	4F\	.	.	.	[2g\	-nus
.	.	.	.	4E\	.	.	.	.	.
=52	=52	=52	=52	=52	=52	=52	=52	=52	=52
0GG]	.	0BB]	.	0D	.	0G	De-	2g\]	.
.	.	.	.	.	.	.	.	4f\	.
.	.	.	.	.	.	.	.	4e\	.
.	.	.	.	.	.	.	.	1g	.
=53	=53	=53	=53	=53	=53	=53	=53	=53	=53
[0DD	-nus	0AA	-nus	1r	.	[0A	-us	1f	Do-
.	.	.	.	[1D	[Do-	.	.	2d\	.
.	.	.	.	.	.	.	.	[2f\	.
=54	=54	=54	=54	=54	=54	=54	=54	=54	=54
0DD]	.	0r	.	1D]	.	0A]	.	2f\]	.
.	.	.	.	.	.	.	.	4e\	.
.	.	.	.	.	.	.	.	4d\	.
.	.	.	.	1D	-mi-	.	.	1f	.
=55	=55	=55	=55	=55	=55	=55	=55	=55	=55
1r	.	[0A	De-	1C	-nus]	0r	.	1e	.
[1D	De-	.	.	1D	.	.	.	2f\	.
.	.	.	.	.	.	.	.	[2a\	-mi-
=56	=56	=56	=56	=56	=56	=56	=56	=56	=56
1D]	.	0A]	.	0AA	.	0r	.	2a\]	.
.	.	.	.	.	.	.	.	4g\	.
.	.	.	.	.	.	.	.	4f\	.
1C	.	.	.	.	.	.	.	1e	.
=57	=57	=57	=57	=57	=57	=57	=57	=57	=57
1D	.	1F	.	1A	De-	0r	.	1d	-nus]
1E	.	2G\	.	1G	.	.	.	1r	.
.	.	[2E\	.	.	.	.	.	.	.
=58	=58	=58	=58	=58	=58	=58	=58	=58	=58
2C/	.	2E\]	.	2E\	.	0r	.	2r	.
2D\	.	1A	.	2F\	.	.	.	1f	De-
1BB	.	.	.	1D	.	.	.	.	.
.	.	2G#i\	.	.	.	.	.	4e\	.
.	.	.	.	.	.	.	.	4d\	.
=59	=59	=59	=59	=59	=59	=59	=59	=59	=59
0AA	-us	0A	-us	1.E	.	0r	.	2c\	.
.	.	.	.	.	.	.	.	1e	.
.	.	.	.	2F\	.	.	.	4d\	.
.	.	.	.	.	.	.	.	4c\	.
=60	=60	=60	=60	=60	=60	=60	=60	=60	=60
0r	.	0r	.	2.G\	.	0r	.	2.B\	.
.	.	.	.	4A\	.	.	.	4c\	.
.	.	.	.	2B\	.	.	.	2d\	.
.	.	.	.	[2A\	.	.	.	[2c\	.
=61	=61	=61	=61	=61	=61	=61	=61	=61	=61
0r	.	1r	.	2A\]	.	0r	.	2c\]	.
.	.	.	.	4G\	.	.	.	4B\	.
.	.	.	.	4F\	.	.	.	4A/	.
.	.	1E	De-	1G	.	.	.	1B	.
=62	=62	=62	=62	=62	=62	=62	=62	=62	=62
0r	.	2F\	.	2A\	.	0A	sa-	0A	-us
.	.	4E\	.	4G\	.	.	.	.	.
.	.	4D\	.	4F\	.	.	.	.	.
.	.	2C/	.	2E\	.	.	.	.	.
.	.	[2D\	.	[2F\	.	.	.	.	.
=63	=63	=63	=63	=63	=63	=63	=63	=63	=63
0r	.	2D\]	.	2F\]	.	1.A	-ba-	0r	.
.	.	2C/	.	2E\	.	.	.	.	.
.	.	2D\	.	2F\	.	.	.	.	.
.	.	4C/	.	4E\	.	2B\	.	.	.
.	.	4BB/	.	4D\	.	.	.	.	.
=64	=64	=64	=64	=64	=64	=64	=64	=64	=64
0r	.	1AA	.	1C	.	1c	.	0r	.
.	.	[1D	.	[1F	.	[1B	.	.	.
=65	=65	=65	=65	=65	=65	=65	=65	=65	=65
0r	.	1D]	.	1F]	.	1B]	.	1r	.
.	.	1C	.	[1E	.	[1A	.	1A	sa-
=66	=66	=66	=66	=66	=66	=66	=66	=66	=66
0r	.	0BB	.	1E]	.	1A]	.	1B	-ba-
.	.	.	.	1D	.	1G#i	.	1d	.
=67	=67	=67	=67	=67	=67	=67	=67	=67	=67
1r	.	0AA	-us]	0E	-us	[0Al	-oth	1.c	.
[1AA	sa-	.	.	.	.	.	.	.	.
.	.	.	.	.	.	.	.	2d\	.
=68	=68	=68	=68	=68	=68	=68	=68	=68	=68
1AA]	.	0r	.	0r	.	0A_	.	1e	.
1D	.	.	.	.	.	.	.	1f	.
=69	=69	=69	=69	=69	=69	=69	=69	=69	=69
2C/	.	0r	.	0r	.	0A_	.	2e\	.
2.D\	.	.	.	.	.	.	.	2.f\	.
4E\	.	.	.	.	.	.	.	4g\	.
[2F\	.	.	.	.	.	.	.	[2a\	.
=70	=70	=70	=70	=70	=70	=70	=70	=70	=70
2F\]	.	2r	.	0r	.	0A_	.	2a\]	.
4E\	.	1A	Sa-	.	.	.	.	4g\	.
4D\	.	.	.	.	.	.	.	4f\	.
2C/	.	.	.	.	.	.	.	2e\	.
[2D\	.	2D\	.	.	.	.	.	[2f\	.
=71	=71	=71	=71	=71	=71	=71	=71	=71	=71
2D\]	.	4F\	.	0r	.	0A_	.	2f\]	.
.	.	4G\	.	.	.	.	.	.	.
4C/	.	4A\	.	.	.	.	.	4e\	.
4BB/	.	4B\	.	.	.	.	.	4d\	.
2.AA/	.	2c\	.	.	.	.	.	2c\	.
.	.	[2A\	-ba-	.	.	.	.	[2e\	.
4BB/	.	.	.	.	.	.	.	.	.
=72	=72	=72	=72	=72	=72	=72	=72	=72	=72
2C/	.	2A\]	.	2r	.	0A_	.	4e\]	.
.	.	.	.	.	.	.	.	4d\	.
2D\	.	4G\	.	1A	sa-	.	.	1d	.
.	.	4F\	.	.	.	.	.	.	.
1AA	-ba-	1E	.	.	.	.	.	.	.
.	.	.	.	2A\	-ba-	.	.	2c#i\	.
=73	=73	=73	=73	=73	=73	=73	=73	=73	=73
[0DDl	-oth	[0Dl	-oth	1F	-oth	0A_	.	[0dl	-oth
.	.	.	.	2D\	.	.	.	.	.
.	.	.	.	[2F\	.	.	.	.	.
=74	=74	=74	=74	=74	=74	=74	=74	=74	=74
0DD_	.	0D_	.	2F\]	.	0A_	.	0d_	.
.	.	.	.	4E\	.	.	.	.	.
.	.	.	.	4D\	.	.	.	.	.
.	.	.	.	2.F\	.	.	.	.	.
.	.	.	.	4G\	.	.	.	.	.
=75	=75	=75	=75	=75	=75	=75	=75	=75	=75
0DD]	.	0D]	.	0Al	.	0A]	.	0d]	.
!!LO:LB:i:g=z
=76||	=76||	=76||	=76||	=76||	=76||	=76||	=76||	=76||	=76||
*>B	*>B	*>B	*>B	*>B	*>B	*>B	*>B	*>B	*>B
*clefF4	*	*clefF4	*	*clefF4	*	*clefGv2	*	*clefGv2	*
*k[]	*	*k[]	*	*k[]	*	*k[]	*	*k[]	*
*M2/1	*	*M2/1	*	*M2/1	*	*M2/1	*	*M2/1	*
*met(C|)	*	*met(C|)	*	*met(C|)	*	*met(C|)	*	*met(C|)	*
!!section: Pleni sunt celi
!!!OMD: Pleni sunt celi
0r	.	0r	.	1.A	Ple-	0r	.	0r	.
.	.	.	.	2F\	-ni	.	.	.	.
=77	=77	=77	=77	=77	=77	=77	=77	=77	=77
0r	.	0r	.	1G	.	0r	.	1.e	Ple-
.	.	.	.	1A	.	.	.	.	.
.	.	.	.	.	.	.	.	2c\	.
=78	=78	=78	=78	=78	=78	=78	=78	=78	=78
0r	.	0r	.	1D	.	0r	.	1d	.
.	.	.	.	2r	.	.	.	1e	.
.	.	.	.	[2A\	sunt	.	.	.	.
=79	=79	=79	=79	=79	=79	=79	=79	=79	=79
0r	.	0r	.	2A\]	.	0r	.	1A	-ni
.	.	.	.	4G\	.	.	.	.	.
.	.	.	.	4F\	.	.	.	.	.
.	.	.	.	1G	.	.	.	2r	.
.	.	.	.	.	.	.	.	[2e\	sunt
=80	=80	=80	=80	=80	=80	=80	=80	=80	=80
0r	.	0r	.	1A	.	0r	.	2e\]	.
.	.	.	.	.	.	.	.	4d\	.
.	.	.	.	.	.	.	.	4c\	.
.	.	.	.	2F\	.	.	.	1d	.
.	.	.	.	[2G\	.	.	.	.	.
=81	=81	=81	=81	=81	=81	=81	=81	=81	=81
0r	.	0r	.	2G\]	.	0r	.	1e	.
.	.	.	.	2E\	.	.	.	.	.
.	.	.	.	1F	.	.	.	2c\	.
.	.	.	.	.	.	.	.	[2d\	.
=82	=82	=82	=82	=82	=82	=82	=82	=82	=82
0r	.	0r	.	2D\	.	0r	.	2d\]	.
.	.	.	.	1E	.	.	.	2B\	.
.	.	.	.	.	.	.	.	1c	.
.	.	.	.	2C/	.	.	.	.	.
=83	=83	=83	=83	=83	=83	=83	=83	=83	=83
0r	.	0r	.	1D	.	0r	.	2A/	.
.	.	.	.	.	.	.	.	1B	.
.	.	.	.	2BB/	.	.	.	.	.
.	.	.	.	2C/	.	.	.	2G/	.
=84	=84	=84	=84	=84	=84	=84	=84	=84	=84
0r	.	0r	.	2AA/	.	0r	.	2A/	ce-
.	.	.	.	2BB/	.	.	.	4G/	.
.	.	.	.	.	.	.	.	4F/	.
.	.	.	.	2C/	.	.	.	2E/	.
.	.	.	.	4D\	.	.	.	[2F/	.
.	.	.	.	4C/	.	.	.	.	.
=85	=85	=85	=85	=85	=85	=85	=85	=85	=85
0r	.	0r	.	4BB/	.	0r	.	2F/]	.
.	.	.	.	4AA/	.	.	.	.	.
.	.	.	.	1D	ce-	.	.	4E/	.
.	.	.	.	.	.	.	.	4D/	.
.	.	.	.	.	.	.	.	1E	.
.	.	.	.	2C#i/	.	.	.	.	.
=86	=86	=86	=86	=86	=86	=86	=86	=86	=86
1r	.	2r	.	1D	-li	0r	.	1D	-li
.	.	2.A\	et	.	.	.	.	.	.
2r	.	.	.	1r	.	.	.	1r	.
.	.	4G\	.	.	.	.	.	.	.
[2D\	et-	4F\	.	.	.	.	.	.	.
.	.	4E\	.	.	.	.	.	.	.
=87	=87	=87	=87	=87	=87	=87	=87	=87	=87
4D\]	.	2D\	.	0r	.	0r	.	0r	.
4C/	.	.	.	.	.	.	.	.	.
4BB/	.	2.G\	ter-	.	.	.	.	.	.
4AA/	.	.	.	.	.	.	.	.	.
2GG/	.	.	.	.	.	.	.	.	.
.	.	4F\	.	.	.	.	.	.	.
[2C/	-ter-	4E\	.	.	.	.	.	.	.
.	.	4D\	.	.	.	.	.	.	.
=88	=88	=88	=88	=88	=88	=88	=88	=88	=88
4C/]	.	2C/	.	0r	.	0r	.	0r	.
4BB/	.	.	.	.	.	.	.	.	.
4AA/	.	1F	.	.	.	.	.	.	.
4GG/	.	.	.	.	.	.	.	.	.
4FF/	.	.	.	.	.	.	.	.	.
4GG/	.	.	.	.	.	.	.	.	.
4AA/	.	4E\	.	.	.	.	.	.	.
4BB/	.	4D\	.	.	.	.	.	.	.
=89	=89	=89	=89	=89	=89	=89	=89	=89	=89
2C/	.	2E\	.	0r	.	0r	.	0r	.
2D\	.	2F\	.	.	.	.	.	.	.
2BB/	.	2G\	.	.	.	.	.	.	.
2C/	.	[2A\	.	.	.	.	.	.	.
=90	=90	=90	=90	=90	=90	=90	=90	=90	=90
1FF	.	4A\]	.	0r	.	0r	.	0r	.
.	.	4G\	.	.	.	.	.	.	.
.	.	1F	.	.	.	.	.	.	.
1GG	.	.	.	.	.	.	.	.	.
.	.	2E\	.	.	.	.	.	.	.
=91	=91	=91	=91	=91	=91	=91	=91	=91	=91
0FF	-ra	2F\	-ra	2r	.	0r	.	1r	.
.	.	4E\	.	1F	glo-	.	.	.	.
.	.	4D\	.	.	.	.	.	.	.
.	.	1C	.	.	.	.	.	2r	.
.	.	.	.	2F\	-ri-	.	.	[2A/	glo-
=92	=92	=92	=92	=92	=92	=92	=92	=92	=92
2r	.	1r	.	0F	-a	0r	.	2A/]	.
1FF	glo-	.	.	.	.	.	.	2A/	-ri-
.	.	2r	.	.	.	.	.	1A	-a
2FF/	-ri-	[2C/	glo-	.	.	.	.	.	.
=93	=93	=93	=93	=93	=93	=93	=93	=93	=93
1FF	-a	2C/]	.	0r	.	0r	.	0r	.
.	.	2C/	-ri-	.	.	.	.	.	.
2r	.	1C	-a	.	.	.	.	.	.
2FF/	[glo-	.	.	.	.	.	.	.	.
=94	=94	=94	=94	=94	=94	=94	=94	=94	=94
2EE/	.	2r	.	0r	.	0r	.	0r	.
2FF/	.	2AA/	[glo-	.	.	.	.	.	.
2GG/	.	2BB/	.	.	.	.	.	.	.
[2AA/	-ri-	2C/	.	.	.	.	.	.	.
=95	=95	=95	=95	=95	=95	=95	=95	=95	=95
2AA/]	.	2AA/	.	0r	.	0r	.	0r	.
4GG/	.	1D	-ri-	.	.	.	.	.	.
4FF/	.	.	.	.	.	.	.	.	.
1EE	.	.	.	.	.	.	.	.	.
.	.	2C#i/	.	.	.	.	.	.	.
=96	=96	=96	=96	=96	=96	=96	=96	=96	=96
1DD	-a]	1D	-a]	2r	.	0r	.	1r	.
.	.	.	.	2F\	tu	.	.	.	.
1r	.	1r	.	2E\	.	.	.	2r	.
.	.	.	.	2F\	.	.	.	2A/	tu-
=97	=97	=97	=97	=97	=97	=97	=97	=97	=97
0r	.	0r	.	2G\	.	0r	.	2B\	.
.	.	.	.	1A	.	.	.	2c\	.
.	.	.	.	.	.	.	.	2A/	.
.	.	.	.	4G\	.	.	.	[2d\	.
.	.	.	.	4F\	.	.	.	.	.
=98	=98	=98	=98	=98	=98	=98	=98	=98	=98
1r	.	0r	.	1E	.	0r	.	2d\]	.
.	.	.	.	.	.	.	.	2c\	.
2r	.	.	.	[1D	a	.	.	2d\	.
[2D\	tu-	.	.	.	.	.	.	[2f\	.
=99	=99	=99	=99	=99	=99	=99	=99	=99	=99
2D\]	.	1r	.	2D\]	.	0r	.	2f\]	.
2C/	.	.	.	2E\	.	.	.	2e\	.
1BB	.	1D	tu-	2F\	.	.	.	2d\	.
.	.	.	.	2G\	.	.	.	4c\	.
.	.	.	.	.	.	.	.	4B\	.
=100	=100	=100	=100	=100	=100	=100	=100	=100	=100
0AAl	-a	0El	-a	0Al	.	0r	.	0cl	-a
!!LO:LB:i:g=z
=101||	=101||	=101||	=101||	=101||	=101||	=101||	=101||	=101||	=101||
*>C	*>C	*>C	*>C	*>C	*>C	*>C	*>C	*>C	*>C
*clefF4	*	*clefF4	*	*clefF4	*	*clefGv2	*	*clefGv2	*
*k[]	*	*k[]	*	*k[]	*	*k[]	*	*k[]	*
*M2/1	*	*M2/1	*	*M2/1	*	*M2/1	*	*M2/1	*
*met(C|)	*	*met(C|)	*	*met(C|)	*	*met(C|)	*	*met(C|)	*
!!section: Osanna
!!!OMD: Osanna
[0AA	O-	[0C	O-	[0A	O	0E	O-	[0c	O-
=102	=102	=102	=102	=102	=102	=102	=102	=102	=102
0AA]	.	0C]	.	0A]	.	1E	-san-	0c]	.
.	.	.	.	.	.	1E	-na	.	.
=103	=103	=103	=103	=103	=103	=103	=103	=103	=103
1DD	-san-	0D	.	1.A	san-	1.F	[o-	1f	-san-
1FF	.	.	.	.	.	.	.	1d	.
.	.	.	.	4G\	.	4E/	.	.	.
.	.	.	.	4F\	.	4D/	.	.	.
=104	=104	=104	=104	=104	=104	=104	=104	=104	=104
1EE	.	1GG	-san-	1G	.	1C	.	1e	.
1DD	.	1AA	-na	1F	.	1D	.	[1f	.
=105	=105	=105	=105	=105	=105	=105	=105	=105	=105
1D	.	1r	.	1A	.	1F	-san-	2f\]	.
.	.	.	.	.	.	.	.	2e\	.
1GG	.	1BB	[o-	1B	.	1G	.	[1d	.
=106	=106	=106	=106	=106	=106	=106	=106	=106	=106
0AA	.	1C	.	0A	.	0E	.	2d\]	.
.	.	.	.	.	.	.	.	2c#i\	.
.	.	[1AA	-san-	.	.	.	.	2c#i\	.
.	.	.	.	.	.	.	.	4B\	.
.	.	.	.	.	.	.	.	4c#i\	.
=107	=107	=107	=107	=107	=107	=107	=107	=107	=107
1DD	.	1AA]	.	1F	.	[0D	-na]	[0d	-na
1GG	.	1BB	.	2G\	.	.	.	.	.
.	.	.	.	4F\	.	.	.	.	.
.	.	.	.	4E\	.	.	.	.	.
=108	=108	=108	=108	=108	=108	=108	=108	=108	=108
2FF/	.	2AA/	.	1D	.	0D]	.	0d]	.
1GG	-na	1BB	.	.	.	.	.	.	.
.	.	.	.	1G	.	.	.	.	.
4FF/	.	4AA/	.	.	.	.	.	.	.
4EE/	.	4GG/	.	.	.	.	.	.	.
=109	=109	=109	=109	=109	=109	=109	=109	=109	=109
1DD	.	1AA	.	4F\	.	0r	.	0r	.
.	.	.	.	4E\	.	.	.	.	.
.	.	.	.	4D\	.	.	.	.	.
.	.	.	.	4C/	.	.	.	.	.
2r	.	2BB/	.	2BB/	.	.	.	.	.
[2AA/	o-	[2C/	.	[2AA/	.	.	.	.	.
=110	=110	=110	=110	=110	=110	=110	=110	=110	=110
2AA/]	.	2C/]	.	2AA/]	.	0r	.	0r	.
4GG/	.	4BB/	.	1D	.	.	.	.	.
4FF/	.	4AA/	.	.	.	.	.	.	.
1EE	.	1GG	.	.	.	.	.	.	.
.	.	.	.	2C#i/	.	.	.	.	.
=111	=111	=111	=111	=111	=111	=111	=111	=111	=111
[0DD	-san-	[0AA	-na	0D	-na	[0A	in	1r	.
.	.	.	.	.	.	.	.	[1f	o-
=112	=112	=112	=112	=112	=112	=112	=112	=112	=112
0DD]	.	0AA]	.	1.F	.	0A]	.	1f]	.
.	.	.	.	.	.	.	.	1f	-san-
.	.	.	.	4E\	.	.	.	.	.
.	.	.	.	4D\	.	.	.	.	.
=113	=113	=113	=113	=113	=113	=113	=113	=113	=113
0AA	.	1r	.	0C	.	0A	ex-	1e	.
.	.	[1AA	o-	.	.	.	.	[1a	.
=114	=114	=114	=114	=114	=114	=114	=114	=114	=114
0FF	.	1AA]	.	1r	.	0A	-cel-	2a\]	.
.	.	.	.	.	.	.	.	2g\	.
.	.	[1C	.	[1c	[o-	.	.	[1f	.
=115	=115	=115	=115	=115	=115	=115	=115	=115	=115
0C	.	2C/]	.	1c]	.	0G	.	2f\]	.
.	.	2D\	.	.	.	.	.	2e\	.
.	.	1E	-san-	1c	-san-	.	.	2e\	.
.	.	.	.	.	.	.	.	4d\	.
.	.	.	.	.	.	.	.	4e\	.
=116	=116	=116	=116	=116	=116	=116	=116	=116	=116
0FF	-na	0C	.	0A	.	0F	-sis	0f	-na
=117	=117	=117	=117	=117	=117	=117	=117	=117	=117
0r	.	1D	.	1F	.	2.A/	[in	1f	in
.	.	.	.	.	.	4B\	.	.	.
.	.	2C/	.	1G	-na]	2c\	.	2e\	.
.	.	[2E\	-na]	.	.	[2B\	ex-	[2g\	.
=118	=118	=118	=118	=118	=118	=118	=118	=118	=118
0r	.	2E\]	.	2r	.	2B\]	.	2g\]	.
.	.	4D\	.	2C/	in	1A	-cel-	4f\	.
.	.	4C/	.	.	.	.	.	4e\	.
.	.	1BB	.	1D	.	.	.	1d	.
.	.	.	.	.	.	2G#i/	.	.	.
=119	=119	=119	=119	=119	=119	=119	=119	=119	=119
1r	.	4AA/	in	1E	.	[0A	-sis]	0c	.
.	.	4BB/	.	.	.	.	.	.	.
.	.	4C/	.	.	.	.	.	.	.
.	.	4D\	.	.	.	.	.	.	.
[1AA	in	2E\	.	[1C	.	.	.	.	.
.	.	[2F\	.	.	.	.	.	.	.
=120	=120	=120	=120	=120	=120	=120	=120	=120	=120
1AA]	.	2F\]	.	1C]	.	0A]	.	0r	.
.	.	2E\	.	.	.	.	.	.	.
1D	.	2D\	.	1F	.	.	.	.	.
.	.	[2A\	.	.	.	.	.	.	.
=121	=121	=121	=121	=121	=121	=121	=121	=121	=121
1C	.	2A\]	.	1E	.	0r	.	0r	.
.	.	2G\	.	.	.	.	.	.	.
2D\	.	2F\	.	2D\	.	.	.	.	.
[2E\	.	[2G\	.	2C/	.	.	.	.	.
=122	=122	=122	=122	=122	=122	=122	=122	=122	=122
4E\]	.	4G\]	.	2D\	.	0r	.	1r	.
4D\	.	4F\	.	.	.	.	.	.	.
1D	.	4E\	.	2BB/	.	.	.	.	.
.	.	4D\	.	.	.	.	.	.	.
.	.	1E	.	1AA	.	.	.	1e	ex-
2C#i/	.	.	.	.	.	.	.	.	.
=123	=123	=123	=123	=123	=123	=123	=123	=123	=123
0D	.	2D\	.	1r	.	[0A	o-	2f\	-cel-
.	.	1F	.	.	.	.	.	1a	.
.	.	.	.	2r	.	.	.	.	.
.	.	4E\	.	[2A\	ex-	.	.	4g\	.
.	.	4D\	.	.	.	.	.	4f\	.
=124	=124	=124	=124	=124	=124	=124	=124	=124	=124
0r	.	2C/	.	4A\]	.	0A]	.	2e\	.
.	.	.	.	4G\	.	.	.	.	.
.	.	1D	.	4F\	.	.	.	1f	.
.	.	.	.	4E\	.	.	.	.	.
.	.	.	.	1D	.	.	.	.	.
.	.	4C/	.	.	.	.	.	4e\	.
.	.	4BB/	.	.	.	.	.	4d\	.
=125	=125	=125	=125	=125	=125	=125	=125	=125	=125
2r	.	1AA	.	2E\	.	0A	-san-	1c	-sis
1AA	ex-	.	.	2.c\	-cel-	.	.	.	.
.	.	1r	.	.	.	.	.	1r	.
.	.	.	.	4B\	.	.	.	.	.
[2D\	-cel-	.	.	4A\	.	.	.	.	.
.	.	.	.	4G\	.	.	.	.	.
=126	=126	=126	=126	=126	=126	=126	=126	=126	=126
2D\]	.	2r	.	2F\	.	0A	-na	0r	.
4C/	.	1D	ex-	1G	.	.	.	.	.
4BB/	.	.	.	.	.	.	.	.	.
1AA	.	.	.	.	.	.	.	.	.
.	.	2C/	.	2F#i\	.	.	.	.	.
=127	=127	=127	=127	=127	=127	=127	=127	=127	=127
[0GG	.	4D\	-cel-	[0G	-sis	0B	in	[0d	[in
.	.	4C/	.	.	.	.	.	.	.
.	.	4BB/	.	.	.	.	.	.	.
.	.	4AA/	.	.	.	.	.	.	.
.	.	2GG/	.	.	.	.	.	.	.
.	.	[2G\	.	.	.	.	.	.	.
=128	=128	=128	=128	=128	=128	=128	=128	=128	=128
0GG]	.	2G\]	.	0G]	.	0B	ex-	0d]	.
.	.	4F\	.	.	.	.	.	.	.
.	.	4E\	.	.	.	.	.	.	.
.	.	1D	.	.	.	.	.	.	.
=129	=129	=129	=129	=129	=129	=129	=129	=129	=129
0C	.	[0C	-sis	0G	[in	[0c	-cel-	0e	.
=130	=130	=130	=130	=130	=130	=130	=130	=130	=130
0FF	.	0C]	.	1.A	.	0c]	.	1.f	.
.	.	.	.	4G\	.	.	.	4e\	.
.	.	.	.	4F\	.	.	.	4d\	.
=131	=131	=131	=131	=131	=131	=131	=131	=131	=131
1.AA	.	1r	.	[0E	.	1.c	-sis	1c	.
.	.	2r	.	.	.	.	.	1r	.
2GG/	.	2BB/	o-	.	.	2B\	.	.	.
=132	=132	=132	=132	=132	=132	=132	=132	=132	=132
1AA	.	2C/	-san-	1E]	.	1A	[in	2r	.
.	.	4BB/	.	.	.	.	.	2.e\	ex-
.	.	4AA/	.	.	.	.	.	.	.
1EE	-sis	1BB	.	1E	ex-	1G	.	.	.
.	.	.	.	.	.	.	.	4d\	.
.	.	.	.	.	.	.	.	4c\	.
.	.	.	.	.	.	.	.	4B\	.
=133	=133	=133	=133	=133	=133	=133	=133	=133	=133
2r	.	1AA	-na	2C/	.	1A	ex-	1c	.
1AA	ex-	.	.	1c	-cel-	.	.	.	.
.	.	1r	.	.	.	2F/	.	2A/	.
2GG/	.	.	.	2B\	.	[2G/	-cel-	[2B\	-cel-
=134	=134	=134	=134	=134	=134	=134	=134	=134	=134
2EE/	-cel-	1r	.	2G\	.	4G/]	.	4B\]	.
.	.	.	.	.	.	4F/	.	4A/	.
2FF/	.	.	.	2A\	.	4E/	.	1d	.
.	.	.	.	.	.	4D/	.	.	.
2GG/	.	2r	.	2B\	.	1E	.	.	.
2AA/	.	[2AA/	in	[2A\	.	.	.	2c#i\	.
=135	=135	=135	=135	=135	=135	=135	=135	=135	=135
2FF/	.	2AA/]	.	2A\]	.	[0Dl	-sis]	[0dl	-sis]
1GG	-sis	2BB/	ex-	2G\	.	.	.	.	.
.	.	1GG	-cel-	2B-i\	.	.	.	.	.
4FF/	.	.	.	4A\	.	.	.	.	.
4EE/	.	.	.	4G\	.	.	.	.	.
=136	=136	=136	=136	=136	=136	=136	=136	=136	=136
[0DDl	.	[0AAl	-sis	1F	-sis	0D_	.	0d_	.
.	.	.	.	2r	.	.	.	.	.
.	.	.	.	[2F\	ex-	.	.	.	.
=137	=137	=137	=137	=137	=137	=137	=137	=137	=137
0DD_	.	0AA_	.	2F\]	.	0D_	.	0d_	.
.	.	.	.	4E\	.	.	.	.	.
.	.	.	.	4D\	.	.	.	.	.
.	.	.	.	2.F\	-cel-	.	.	.	.
.	.	.	.	4G\	.	.	.	.	.
=138	=138	=138	=138	=138	=138	=138	=138	=138	=138
0DD]	.	0AA]	.	0Al	-sis]-	0D]	.	0d]	.
!!LO:LB:i:g=z
!!LO:TX:rj:i:t=fine
=139||	=139||	=139||	=139||	=139||	=139||	=139||	=139||	=139||	=139||
*>D	*>D	*>D	*>D	*>D	*>D	*>D	*>D	*>D	*>D
*clefF4	*	*clefF4	*	*clefF4	*	*clefGv2	*	*clefGv2	*
*k[]	*	*k[]	*	*k[]	*	*k[]	*	*k[]	*
*M2/1	*	*M2/1	*	*M2/1	*	*M2/1	*	*M2/1	*
*met(C|)	*	*met(C|)	*	*met(C|)	*	*met(C|)	*	*met(C|)	*
!!section: Benedictus
!!!OMD: Benedictus
0AA	Be-	0r	.	0r	.	0r	.	0r	.
=140	=140	=140	=140	=140	=140	=140	=140	=140	=140
1AA	-ne-	0r	.	0r	.	0r	.	0r	.
1AA	-dic-	.	.	.	.	.	.	.	.
=141	=141	=141	=141	=141	=141	=141	=141	=141	=141
1.D	-tus	0r	.	0r	.	0r	.	0A	Be-
4C/	.	.	.	.	.	.	.	.	.
4BB/	.	.	.	.	.	.	.	.	.
=142	=142	=142	=142	=142	=142	=142	=142	=142	=142
1C	.	0r	.	0r	.	0r	.	1A	-ne-
1D	[be-	.	.	.	.	.	.	1A	-dic-
=143	=143	=143	=143	=143	=143	=143	=143	=143	=143
2D\	-ne-	0r	.	0r	.	0r	.	1.d	-ttus
1F	-dic-	.	.	.	.	.	.	.	.
4E\	.	.	.	.	.	.	.	4c\	.
4D\	.	.	.	.	.	.	.	4B\	.
=144	=144	=144	=144	=144	=144	=144	=144	=144	=144
1E	.	0r	.	0r	.	0r	.	1c	.
[1D	.	.	.	.	.	.	.	[1d	[be-
=145	=145	=145	=145	=145	=145	=145	=145	=145	=145
1D]	.	0r	.	0r	.	0r	.	2d\]	.
.	.	.	.	.	.	.	.	4c\	.
.	.	.	.	.	.	.	.	4B\	.
1C	.	.	.	.	.	.	.	2.A/	.
.	.	.	.	.	.	.	.	4G/	.
=146	=146	=146	=146	=146	=146	=146	=146	=146	=146
1D	.	0r	.	0r	.	0r	.	2B-i\	.
.	.	.	.	.	.	.	.	1A	-ne-
1AA	.	.	.	.	.	.	.	.	.
.	.	.	.	.	.	.	.	4G/	.
.	.	.	.	.	.	.	.	4F/	.
=147	=147	=147	=147	=147	=147	=147	=147	=147	=147
1C	.	0r	.	0r	.	0r	.	2.E/	.
.	.	.	.	.	.	.	.	4F/	.
2BB/	.	.	.	.	.	.	.	2G/	.
[2C/	.	.	.	.	.	.	.	[2E/	-dic-
=148	=148	=148	=148	=148	=148	=148	=148	=148	=148
2C/]	.	0r	.	0r	.	0r	.	2E/]	.
4BB/	.	.	.	.	.	.	.	4D/	.
4AA/	.	.	.	.	.	.	.	4C/	.
2GG/	.	.	.	.	.	.	.	2BB/	.
2AA/	.	.	.	.	.	.	.	[2AA/	.
=149	=149	=149	=149	=149	=149	=149	=149	=149	=149
1FF	.	0r	.	0r	.	0r	.	4AA/]	.
.	.	.	.	.	.	.	.	4BB/	.
.	.	.	.	.	.	.	.	4C/	.
.	.	.	.	.	.	.	.	4D/	.
2EE/	.	.	.	.	.	.	.	2E/	.
2DD/	.	.	.	.	.	.	.	[2F/	.
=150	=150	=150	=150	=150	=150	=150	=150	=150	=150
2FF/	.	0r	.	0r	.	0r	.	4F/]	.
.	.	.	.	.	.	.	.	4E/	.
2GG/	.	.	.	.	.	.	.	1D	.
1EE	.	.	.	.	.	.	.	.	.
.	.	.	.	.	.	.	.	2C#i/	.
=151	=151	=151	=151	=151	=151	=151	=151	=151	=151
2DD/	.	0D	Be-	[0A	-Be-	0r	.	1D	-tus
1D	.	.	.	.	.	.	.	.	.
.	.	.	.	.	.	.	.	1r	.
4C/	.	.	.	.	.	.	.	.	.
4BB/	.	.	.	.	.	.	.	.	.
=152	=152	=152	=152	=152	=152	=152	=152	=152	=152
1.AA	.	[0E	.	0A]	.	0r	.	[0c	be-
2BB/	.	.	.	.	.	.	.	.	.
=153	=153	=153	=153	=153	=153	=153	=153	=153	=153
1C	.	1E]	.	0A	-ne-	0r	.	1c]	.
1D	.	1F	-ne-	.	.	.	.	1A	-ne-
=154	=154	=154	=154	=154	=154	=154	=154	=154	=154
0BB	.	0D	-dic-	0G	-dic-	0r	.	1.d	-dic-
.	.	.	.	.	.	.	.	4c\	.
.	.	.	.	.	.	.	.	4B\	.
=155	=155	=155	=155	=155	=155	=155	=155	=155	=155
0AA	.	0E	.	0A	-tus	0r	.	2c\	.
.	.	.	.	.	.	.	.	1d	.
.	.	.	.	.	.	.	.	2c#i\	.
=156	=156	=156	=156	=156	=156	=156	=156	=156	=156
0DD	-tus]	0D	-tus	1r	.	0r	.	1d	-tus
.	.	.	.	[1A	[be-	.	.	1r	.
=157	=157	=157	=157	=157	=157	=157	=157	=157	=157
0r	.	0r	.	2A\]	.	0r	.	0e	be-
.	.	.	.	4G\	.	.	.	.	.
.	.	.	.	4F\	.	.	.	.	.
.	.	.	.	2E\	.	.	.	.	.
.	.	.	.	[2A\	-ne-	.	.	.	.
=158	=158	=158	=158	=158	=158	=158	=158	=158	=158
0r	.	0r	.	2A\]	.	0r	.	1e	-ne-
.	.	.	.	4G\	.	.	.	.	.
.	.	.	.	4F\	.	.	.	.	.
.	.	.	.	2G\	.	.	.	1e	-dic-
.	.	.	.	2A\	.	.	.	.	.
=159	=159	=159	=159	=159	=159	=159	=159	=159	=159
0D	be-	1r	.	2D\	.	0r	.	1f	-tus
.	.	.	.	1d	-dic-	.	.	.	.
.	.	2r	.	.	.	.	.	2r	.
.	.	[2F\	[be-	4c\	.	.	.	[2f\	be-
.	.	.	.	4B\	.	.	.	.	.
=160	=160	=160	=160	=160	=160	=160	=160	=160	=160
1AA	-ne-	2F\]	.	2c\	.	0r	.	4f\]	.
.	.	.	.	.	.	.	.	4e\	.
.	.	1E	-ne-	1A	.	.	.	2c\	-ne-
1BB	-dic	.	.	.	.	.	.	1d	-dic-
.	.	2D\	-dic	2G#i\	.	.	.	.	.
=161	=161	=161	=161	=161	=161	=161	=161	=161	=161
0C	tus	0E	tus]	1A	-tus]	0r	.	1c	-tus]
.	.	.	.	2r	.	.	.	1r	.
.	.	.	.	2E\	qui	.	.	.	.
=162	=162	=162	=162	=162	=162	=162	=162	=162	=162
0r	.	0r	.	2F\	ve-	0r	.	1A	qui
.	.	.	.	4E\	.	.	.	.	.
.	.	.	.	4D\	.	.	.	.	.
.	.	.	.	2F\	.	.	.	2A/	ve-
.	.	.	.	2E\	.	.	.	[2G/	.
=163	=163	=163	=163	=163	=163	=163	=163	=163	=163
0r	.	0r	.	2C/	.	0r	.	2G/]	.
.	.	.	.	2D\	.	.	.	2F/	.
.	.	.	.	2BB/	.	.	.	2G/	.
.	.	.	.	2C/	.	.	.	2E/	.
=164	=164	=164	=164	=164	=164	=164	=164	=164	=164
0r	.	0r	.	2D\	.	0r	.	2F/	.
.	.	.	.	4C/	.	.	.	4E/	.
.	.	.	.	4BB/	.	.	.	4D/	.
.	.	.	.	2D\	.	.	.	2F/	.
.	.	.	.	2C/	.	.	.	2E/	.
=165	=165	=165	=165	=165	=165	=165	=165	=165	=165
0r	.	0r	.	2.AA/	.	0r	.	2C/	.
.	.	.	.	.	.	.	.	2.A/	.
.	.	.	.	4BB/	.	.	.	.	.
.	.	.	.	2C/	.	.	.	.	.
.	.	.	.	.	.	.	.	4G/	.
.	.	.	.	[2D\	.	.	.	[2F/	.
=166	=166	=166	=166	=166	=166	=166	=166	=166	=166
0r	.	0r	.	2D\]	.	0r	.	2F/]	.
.	.	.	.	4C/	.	.	.	4E/	.
.	.	.	.	4BB/	.	.	.	4D/	.
.	.	.	.	1C#i	.	.	.	1E	.
=167	=167	=167	=167	=167	=167	=167	=167	=167	=167
0DD	qui	1r	.	2D\	.	0r	.	1D	-nit
.	.	.	.	1F	.	.	.	.	.
.	.	[1A	qui	.	.	.	.	1r	.
.	.	.	.	4E\	.	.	.	.	.
.	.	.	.	4D\	.	.	.	.	.
=168	=168	=168	=168	=168	=168	=168	=168	=168	=168
1AA	ve-	1A]	.	1C	.	0r	.	1E	[qui
2BB/	.	2r	.	2D\	.	.	.	2D/	.
2AA/	.	[2A\	ve-	[2E\	.	.	.	2C/	.
=169	=169	=169	=169	=169	=169	=169	=169	=169	=169
1BB	.	2A\]	.	4E\]	.	0r	.	1D	ve-
.	.	.	.	4D\	.	.	.	.	.
.	.	2G\	.	1D	.	.	.	.	.
1AA	.	1A	.	.	.	.	.	1E	.
.	.	.	.	2C#/	.	.	.	.	.
=170	=170	=170	=170	=170	=170	=170	=170	=170	=170
1DD	-nit	1F	.	1D	.	0r	.	1D	.
1r	.	2E\	.	1AA	.	.	.	2E/	.
.	.	[2A\	.	.	.	.	.	[2F/	.
=171	=171	=171	=171	=171	=171	=171	=171	=171	=171
0r	.	4A\]	.	[0A	-nit	0r	.	4F/]	.
.	.	4G\	.	.	.	.	.	4E/	.
.	.	4F\	.	.	.	.	.	4D/	.
.	.	4E\	.	.	.	.	.	4C/	.
.	.	2F\	.	.	.	.	.	1D	.
.	.	4E\	.	.	.	.	.	.	.
.	.	4D\	.	.	.	.	.	.	.
=172	=172	=172	=172	=172	=172	=172	=172	=172	=172
[0AA	[qui	2.C/	.	0A]	.	0r	.	1E	-nit]
.	.	4D\	.	.	.	.	.	.	.
.	.	2E\	.	.	.	.	.	1r	.
.	.	[2F\	.	.	.	.	.	.	.
=173	=173	=173	=173	=173	=173	=173	=173	=173	=173
0AA]	.	2F\]	.	0r	.	0r	.	0A	in
.	.	4E\	.	.	.	.	.	.	.
.	.	4D\	.	.	.	.	.	.	.
.	.	2E\	.	.	.	.	.	.	.
.	.	[2F\	.	.	.	.	.	.	.
=174	=174	=174	=174	=174	=174	=174	=174	=174	=174
0AA	ve-	2F\]	.	[0A	in	0r	.	1c	no-
.	.	4E\	.	.	.	.	.	.	.
.	.	4D\	.	.	.	.	.	.	.
.	.	1E	.	.	.	.	.	1c	-mi-
=175	=175	=175	=175	=175	=175	=175	=175	=175	=175
[0DD	-nit]	[0D	-nit	0A]	.	0r	.	0d	-ne
=176	=176	=176	=176	=176	=176	=176	=176	=176	=176
0DD]	.	0D]	.	1.F	.	0r	.	1r	.
.	.	.	.	.	.	.	.	1d	in
.	.	.	.	4E\	.	.	.	.	.
.	.	.	.	4D\	.	.	.	.	.
=177	=177	=177	=177	=177	=177	=177	=177	=177	=177
0r	.	2r	.	2E\	.	0r	.	2c\	.
.	.	1D	[qui	1F	.	.	.	1A	no-
.	.	2GG/	.	2G\	.	.	.	2B\	.
=178	=178	=178	=178	=178	=178	=178	=178	=178	=178
0r	.	2AA/	ve-	2F\	.	0r	.	2c\	.
.	.	2BB/	.	4E\	.	.	.	1d	.
.	.	.	.	4D\	.	.	.	.	.
.	.	1AA	-nit	1E	.	.	.	.	.
.	.	.	.	.	.	.	.	2c#i\	-mi-
=179	=179	=179	=179	=179	=179	=179	=179	=179	=179
1r	.	2r	.	1D	.	0r	.	1d	-ne
.	.	1A	in	.	.	.	.	.	.
1D	in	.	.	1r	.	.	.	1r	.
.	.	4G\	.	.	.	.	.	.	.
.	.	4F\	.	.	.	.	.	.	.
=180	=180	=180	=180	=180	=180	=180	=180	=180	=180
2C/	no-	2E\	.	0r	.	0r	.	0r	.
2AA/	.	2F\	.	.	.	.	.	.	.
2BB/	.	4G\	no-	.	.	.	.	.	.
.	.	4F\	.	.	.	.	.	.	.
[2C/	-mi-	4E\	.	.	.	.	.	.	.
.	.	4D\	.	.	.	.	.	.	.
=181	=181	=181	=181	=181	=181	=181	=181	=181	=181
2C/]	.	2C/	.	0r	.	0r	.	1r	.
4BB/	.	1F	.	.	.	.	.	.	.
4AA/	.	.	.	.	.	.	.	.	.
1GG	.	.	.	.	.	.	.	1G	in
.	.	2E\	-mi-	.	.	.	.	.	.
=182	=182	=182	=182	=182	=182	=182	=182	=182	=182
0FF	-ne	0F	-ne	2r	.	0r	.	2A/	.
.	.	.	.	1A	no-	.	.	1c	no-
.	.	.	.	2F\	.	.	.	2d\	.
=183	=183	=183	=183	=183	=183	=183	=183	=183	=183
0r	.	1r	.	2G\	.	0r	.	2e\	.
.	.	.	.	1A	-mi-	.	.	1f	-mi-
.	.	1D	in	.	.	.	.	.	.
.	.	.	.	4G\	.	.	.	4e\	.
.	.	.	.	4F\	.	.	.	4d\	.
=184	=184	=184	=184	=184	=184	=184	=184	=184	=184
1r	.	1C	no	1G	.	0r	.	1e	.
2r	.	2D\	.	1F	-ne	.	.	1f	-ne
[2FF/	[in	[2F\	.	.	.	.	.	.	.
=185	=185	=185	=185	=185	=185	=185	=185	=185	=185
2FF/]	.	2F\]	.	0r	.	0r	.	0r	.
2DD/	no-	2F\	mi	.	.	.	.	.	.
2EE/	.	2E\	.	.	.	.	.	.	.
[2FF/	-mi-	2D\	.	.	.	.	.	.	.
=186	=186	=186	=186	=186	=186	=186	=186	=186	=186
2FF/]	.	2C/	.	0r	.	0r	.	0r	.
4EE/	.	2.D\	.	.	.	.	.	.	.
4DD/	.	.	.	.	.	.	.	.	.
1EE	.	.	.	.	.	.	.	.	.
.	.	4C#i/	.	.	.	.	.	.	.
.	.	4C#i/	.	.	.	.	.	.	.
.	.	4BB/	.	.	.	.	.	.	.
=187	=187	=187	=187	=187	=187	=187	=187	=187	=187
0DD	-ne]	0D	ne]	0A	Do-	0r	.	0f	Do
=188	=188	=188	=188	=188	=188	=188	=188	=188	=188
0r	.	[0E	Do-	0G	.	0r	.	0e	.
=189	=189	=189	=189	=189	=189	=189	=189	=189	=189
0AA	Do-	0E]	.	[0A	.	0r	.	0c	.
=190	=190	=190	=190	=190	=190	=190	=190	=190	=190
0D	.	0F	.	1A]	.	0r	.	0d	.
.	.	.	.	1B	.	.	.	.	.
=191	=191	=191	=191	=191	=191	=191	=191	=191	=191
0C	.	1.G	.	0c	.	0r	.	0e	.
.	.	2A\	.	.	.	.	.	.	.
=192	=192	=192	=192	=192	=192	=192	=192	=192	=192
1.FF	.	2F\	.	1.A	.	0r	.	1.f	.
.	.	1A	.	.	.	.	.	.	.
2GG/	.	2G\	.	2B\	.	.	.	4e\	.
.	.	.	.	.	.	.	.	4d\	.
=193	=193	=193	=193	=193	=193	=193	=193	=193	=193
1AA	.	2E\	.	2c\	.	0r	.	1c	.
.	.	2F\	.	1A	-mi-	.	.	.	.
1BB	.	1D	.	.	.	.	.	1d	.
.	.	.	.	2G#i\	.	.	.	.	.
=194	=194	=194	=194	=194	=194	=194	=194	=194	=194
1.AA	.	1E	.	1A	-ni	0r	.	2c\	.
.	.	.	.	.	.	.	.	4B\	.
.	.	.	.	.	.	.	.	4A/	.
.	.	2F\	.	1r	.	.	.	2c\	.
[2GG/	.	2G\	.	.	.	.	.	[2B\	.
=195	=195	=195	=195	=195	=195	=195	=195	=195	=195
4GG/]	.	2D\	.	2r	.	0r	.	4B\]	.
4FF/	.	.	.	.	.	.	.	4A/	.
2DD/	.	2F\	.	1A	[no-	.	.	1d	.
1AA	-mi-	1E	-mi-	.	.	.	.	.	.
.	.	.	.	2A\	-mi-	.	.	2c#i\	mi-
=196	=196	=196	=196	=196	=196	=196	=196	=196	=196
[0FFl	-ni	[0Dl	-ni	2.F\	-ne	0r	.	[0dl	-ni
.	.	.	.	4G\	.	.	.	.	.
.	.	.	.	2A\	Do-	.	.	.	.
.	.	.	.	2B-i\	-mi-	.	.	.	.
=197	=197	=197	=197	=197	=197	=197	=197	=197	=197
0FF]	.	0D]	.	0Al	-ni	0r	.	0d]	.
!!LO:TX:i:Y=40:rj:t=Osanna ut supra
=||	=||	=||	=||	=||	=||	=||	=||	=||	=||
*-	*-	*-	*-	*-	*-	*-	*-	*-	*-
!!!RDF**kern: l=long note in original notation
!!!RDF**kern: i=editorial accidental
!!!ENC:	Jesse Rodin 8/26/2013
!!!END:	2013/08/26/
!!!EED:	Jesse Rodin
!!!EEV:	2013/08/29/
!!!ONB:	Translated from MusicXML and edited on 2013/08/29/ by Craig Sapp
!!muse2ps: T^@{OPR}^u^@{ONM}{. }@{OTL}^C^@{COM}^i2I150v85,85,85,85,110c180
